packages/ui-icons/svg/Line/download.svg

<svg viewBox="0 0 1920 1920" version="1.1" xmlns="http://www.w3.org/2000/svg">
    <path d="M1807.09271,1482.47718 L1886.82918,1562.43953 L1531.51624,1917.75247 L355.346824,1917.75247 L0.0338823529,1562.43953 L79.8832941,1482.47718 L402.104471,1804.81129 L1484.75859,1804.81129 L1807.09271,1482.47718 Z M997.677176,-0.0338823529 L997.677176,1166.98729 L1352.99012,811.674353 L1432.95247,891.523765 L941.093647,1383.15671 L449.460706,891.523765 L529.423059,811.674353 L884.736,1166.98729 L884.736,-0.0338823529 L997.677176,-0.0338823529 Z" stroke="none" stroke-width="1" fill-rule="evenodd"/>
</svg>

<svg viewBox="0 0 1920 1920" version="1.1" xmlns="http://www.w3.org/2000/svg">
    <path d="M1484.759 1804.811l322.334-322.334 79.736 79.963-355.313 355.312H355.346L.035 1562.44l79.85-79.963 322.22 322.334H1484.76zM884.736-.034h112.941v1167.021l355.313-355.313 79.962 79.85-491.858 491.633L449.46 891.524l79.962-79.85 355.313 355.313V-.033z" stroke="none" stroke-width="1" fill-rule="evenodd"/>
</svg>
